Icons/com_devexpert_weather.svg

<svg viewBox="0 0 48 48" xmlns:xlink="http://www.w3.org/1999/xlink">
 <defs>
  <linearGradient id="0">
   <stop stop-opacity="0"/>
   <stop offset="1"/>
  </linearGradient>
  <linearGradient xlink:href="#0" id="1" gradientUnits="userSpaceOnUse" gradientTransform="translate(4e-7,-48)" y1="47" x2="0" y2="1"/>
  <clipPath id="2">
   <g transform="translate(0,-1004.3622)">
    <rect rx="4" y="1005.36" x="1" height="46" width="46" fill="#1890d0"/>
   </g>
  </clipPath>
  <clipPath id="3">
   <g transform="translate(0,-1004.3622)">
    <rect rx="4" y="1005.36" x="1" height="46" width="46" fill="#1890d0"/>
   </g>
  </clipPath>
 </defs>
 <g>
  <g transform="translate(0,-1004.3622)">
   <path d="m 5,1006.3622 c -2.216,0 -4,1.784 -4,4 l 0,37.25 c 0,2.216 1.784,4 4,4 l 38,0 c 2.216,0 4,-1.784 4,-4 l 0,-37.25 c 0,-2.216 -1.784,-4 -4,-4 l -38,0 z m -4,41.5 0,0.5 c 0,2.216 1.784,4 4,4 l 38,0 c 2.216,0 4,-1.784 4,-4 l 0,-0.5 c 0,2.216 -1.784,4 -4,4 l -38,0 c -2.216,0 -4,-1.784 -4,-4 z" opacity="0.02"/>
   <path d="m 1,1047.6122 0,0.25 c 0,2.216 1.784,4 4,4 l 38,0 c 2.216,0 4,-1.784 4,-4 l 0,-0.25 c 0,2.216 -1.784,4 -4,4 l -38,0 c -2.216,0 -4,-1.784 -4,-4 z" opacity="0.05"/>
   <rect width="46" height="46" x="1" y="1005.61" rx="4" opacity="0.1"/>
  </g>
 </g>
 <g>
  <g transform="translate(0,-1004.3622)">
   <rect rx="4" y="1005.36" x="1" height="46" width="46" fill="#01b5f3"/>
  </g>
 </g>
 <g>
  <rect transform="scale(1,-1)" width="46" height="46" x="1" y="-46.998" rx="4" opacity="0.1" fill="url(#1)"/>
 </g>
 <g>
  <g clip-path="url(#2)">
   <g opacity="0.1">
    <g>
     <path d="M 23.007812 11 L 23.210938 16.390625 C 24.039062 15.832031 24.96875 15.46875 25.925781 15.316406 Z M 32.796875 12.226562 L 29.125 15.601562 C 29.761719 15.824219 30.378906 16.144531 30.953125 16.570312 C 31.152344 16.71875 31.339844 16.875 31.519531 17.039062 Z M 26.902344 16.859375 C 25.1875 16.875 23.507812 17.746094 22.457031 19.351562 C 22.367188 19.484375 22.289062 19.621094 22.210938 19.757812 C 23.679688 20.023438 24.957031 20.886719 25.890625 22.066406 C 26.246094 21.957031 26.621094 21.898438 27.011719 21.898438 C 29.300781 21.898438 31.195312 23.890625 31.226562 26.320312 C 31.304688 26.21875 31.378906 26.113281 31.445312 26.007812 C 33.175781 23.371094 32.566406 19.738281 30.085938 17.902344 C 29.113281 17.183594 28 16.847656 26.902344 16.859375 Z M 16 18.371094 L 18.5625 20.371094 C 19.167969 20.039062 19.828125 19.816406 20.527344 19.722656 C 20.679688 19.351562 20.859375 18.988281 21.070312 18.640625 Z M 33.558594 20.246094 C 33.839844 21.113281 33.972656 22.027344 33.945312 22.941406 L 38 21.128906 Z M 32.675781 26.96875 C 32.550781 27.15625 32.421875 27.335938 32.285156 27.507812 C 32.957031 28.328125 33.441406 29.320312 33.679688 30.410156 L 34.695312 31 Z M 32.675781 26.96875 "/>
     <path d="M 20.332031 21 C 22.210938 21 23.820312 22.0625 24.671875 23.59375 C 25.15625 23.234375 25.769531 23 26.445312 23 C 27.976562 23 29.222656 24.121094 29.222656 25.5 C 29.222656 25.808594 29.164062 26.101562 29.046875 26.375 C 30.792969 27.074219 32 28.664062 32 30.5 C 32 32.992188 29.769531 35 27 35 L 17 35 C 14.230469 35 12 32.992188 12 30.5 C 12 28.523438 13.410156 26.859375 15.367188 26.25 C 15.367188 26.164062 15.332031 26.085938 15.332031 26 C 15.332031 23.238281 17.574219 21 20.332031 21 Z M 20.332031 21 " fill-rule="evenodd"/>
    </g>
   </g>
  </g>
 </g>
 <g>
  <g clip-path="url(#3)">
   <g transform="translate(0,-1)">
    <g>
     <path d="M 23.007812 11 L 23.210938 16.390625 C 24.039062 15.832031 24.96875 15.46875 25.925781 15.316406 Z M 32.796875 12.226562 L 29.125 15.601562 C 29.761719 15.824219 30.378906 16.144531 30.953125 16.570312 C 31.152344 16.71875 31.339844 16.875 31.519531 17.039062 Z M 26.902344 16.859375 C 25.1875 16.875 23.507812 17.746094 22.457031 19.351562 C 22.367188 19.484375 22.289062 19.621094 22.210938 19.757812 C 23.679688 20.023438 24.957031 20.886719 25.890625 22.066406 C 26.246094 21.957031 26.621094 21.898438 27.011719 21.898438 C 29.300781 21.898438 31.195312 23.890625 31.226562 26.320312 C 31.304688 26.21875 31.378906 26.113281 31.445312 26.007812 C 33.175781 23.371094 32.566406 19.738281 30.085938 17.902344 C 29.113281 17.183594 28 16.847656 26.902344 16.859375 Z M 16 18.371094 L 18.5625 20.371094 C 19.167969 20.039062 19.828125 19.816406 20.527344 19.722656 C 20.679688 19.351562 20.859375 18.988281 21.070312 18.640625 Z M 33.558594 20.246094 C 33.839844 21.113281 33.972656 22.027344 33.945312 22.941406 L 38 21.128906 Z M 32.675781 26.96875 C 32.550781 27.15625 32.421875 27.335938 32.285156 27.507812 C 32.957031 28.328125 33.441406 29.320312 33.679688 30.410156 L 34.695312 31 Z M 32.675781 26.96875 " fill="#ffc945"/>
     <path d="M 20.332031 21 C 22.210938 21 23.820312 22.0625 24.671875 23.59375 C 25.15625 23.234375 25.769531 23 26.445312 23 C 27.976562 23 29.222656 24.121094 29.222656 25.5 C 29.222656 25.808594 29.164062 26.101562 29.046875 26.375 C 30.792969 27.074219 32 28.664062 32 30.5 C 32 32.992188 29.769531 35 27 35 L 17 35 C 14.230469 35 12 32.992188 12 30.5 C 12 28.523438 13.410156 26.859375 15.367188 26.25 C 15.367188 26.164062 15.332031 26.085938 15.332031 26 C 15.332031 23.238281 17.574219 21 20.332031 21 Z M 20.332031 21 " fill="#f9f9f9" fill-rule="evenodd"/>
    </g>
   </g>
  </g>
 </g>
 <g>
  <g transform="translate(0,-1004.3622)">
   <path d="m 1,1043.3622 0,4 c 0,2.216 1.784,4 4,4 l 38,0 c 2.216,0 4,-1.784 4,-4 l 0,-4 c 0,2.216 -1.784,4 -4,4 l -38,0 c -2.216,0 -4,-1.784 -4,-4 z" opacity="0.1"/>
  </g>
 </g>
</svg>

<svg viewBox="0 0 48 48"><defs><linearGradient id="linearGradient3764" x1="1" x2="47" gradientUnits="userSpaceOnUse" gradientTransform="translate(-48.000001,0.00221467)"><stop stop-color="#01a8df" stop-opacity="1"/><stop offset="1" stop-color="#01b5f3" stop-opacity="1"/></linearGradient><clipPath id="clipPath-738022457"><g transform="translate(0,-1004.3622)"><rect rx="4" y="1005.36" x="1" height="46" width="46" fill="#1890d0"/></g></clipPath><clipPath id="clipPath-770199699"><g transform="translate(0,-1004.3622)"><rect rx="4" y="1005.36" x="1" height="46" width="46" fill="#1890d0"/></g></clipPath></defs><g><path d="m 1 43 l 0 0.25 c 0 2.216 1.784 4 4 4 l 38 0 c 2.216 0 4 -1.784 4 -4 l 0 -0.25 c 0 2.216 -1.784 4 -4 4 l -38 0 c -2.216 0 -4 -1.784 -4 -4 z m 0 0.5 l 0 0.5 c 0 2.216 1.784 4 4 4 l 38 0 c 2.216 0 4 -1.784 4 -4 l 0 -0.5 c 0 2.216 -1.784 4 -4 4 l -38 0 c -2.216 0 -4 -1.784 -4 -4 z" opacity="0.02"/><path d="m 1 43.25 l 0 0.25 c 0 2.216 1.784 4 4 4 l 38 0 c 2.216 0 4 -1.784 4 -4 l 0 -0.25 c 0 2.216 -1.784 4 -4 4 l -38 0 c -2.216 0 -4 -1.784 -4 -4 z" opacity="0.05"/><path d="m 1 43 l 0 0.25 c 0 2.216 1.784 4 4 4 l 38 0 c 2.216 0 4 -1.784 4 -4 l 0 -0.25 c 0 2.216 -1.784 4 -4 4 l -38 0 c -2.216 0 -4 -1.784 -4 -4 z" opacity="0.1"/></g><g><rect width="46" height="46" x="-47" y="1" rx="4" transform="matrix(0,-1,1,0,0,0)" fill="url(#linearGradient3764)" fill-opacity="1"/></g><g><g clip-path="url(#clipPath-738022457)"><g opacity="0.1"><!-- color: #01b5f3 --><g><path d="m 23.01 11 l 0.203 5.391 c 0.828 -0.559 1.758 -0.922 2.715 -1.074 m 6.871 -3.09 l -3.672 3.375 c 0.637 0.223 1.254 0.543 1.828 0.969 c 0.199 0.148 0.387 0.305 0.566 0.469 m -4.617 -0.18 c -1.715 0.016 -3.395 0.887 -4.445 2.492 c -0.09 0.133 -0.168 0.27 -0.246 0.406 c 1.469 0.266 2.746 1.129 3.68 2.309 c 0.355 -0.109 0.73 -0.168 1.121 -0.168 c 2.289 0 4.184 1.992 4.215 4.422 c 0.078 -0.102 0.152 -0.207 0.219 -0.313 c 1.73 -2.637 1.121 -6.27 -1.359 -8.105 c -0.973 -0.719 -2.086 -1.055 -3.184 -1.043 m -10.902 1.512 l 2.563 2 c 0.605 -0.332 1.266 -0.555 1.965 -0.648 c 0.152 -0.371 0.332 -0.734 0.543 -1.082 m 12.488 1.605 c 0.281 0.867 0.414 1.781 0.387 2.695 l 4.055 -1.813 m -5.324 5.84 c -0.125 0.188 -0.254 0.367 -0.391 0.539 c 0.672 0.82 1.156 1.813 1.395 2.902 l 1.016 0.59 m -2.02 -4.03" fill="#000"/><path d="m 20.332 21 c 1.879 0 3.488 1.063 4.34 2.594 c 0.484 -0.359 1.098 -0.594 1.773 -0.594 c 1.531 0 2.777 1.121 2.777 2.5 c 0 0.309 -0.059 0.602 -0.176 0.875 c 1.746 0.699 2.953 2.289 2.953 4.125 c 0 2.492 -2.23 4.5 -5 4.5 l -10 0 c -2.77 0 -5 -2.01 -5 -4.5 c 0 -1.977 1.41 -3.641 3.367 -4.25 c 0 -0.086 -0.035 -0.164 -0.035 -0.25 c 0 -2.762 2.242 -5 5 -5 m 0 0" fill-rule="evenodd" fill="#000"/></g></g></g></g><g><g clip-path="url(#clipPath-770199699)"><g transform="translate(0,-1)"><!-- color: #01b5f3 --><g><path d="m 23.01 11 l 0.203 5.391 c 0.828 -0.559 1.758 -0.922 2.715 -1.074 m 6.871 -3.09 l -3.672 3.375 c 0.637 0.223 1.254 0.543 1.828 0.969 c 0.199 0.148 0.387 0.305 0.566 0.469 m -4.617 -0.18 c -1.715 0.016 -3.395 0.887 -4.445 2.492 c -0.09 0.133 -0.168 0.27 -0.246 0.406 c 1.469 0.266 2.746 1.129 3.68 2.309 c 0.355 -0.109 0.73 -0.168 1.121 -0.168 c 2.289 0 4.184 1.992 4.215 4.422 c 0.078 -0.102 0.152 -0.207 0.219 -0.313 c 1.73 -2.637 1.121 -6.27 -1.359 -8.105 c -0.973 -0.719 -2.086 -1.055 -3.184 -1.043 m -10.902 1.512 l 2.563 2 c 0.605 -0.332 1.266 -0.555 1.965 -0.648 c 0.152 -0.371 0.332 -0.734 0.543 -1.082 m 12.488 1.605 c 0.281 0.867 0.414 1.781 0.387 2.695 l 4.055 -1.813 m -5.324 5.84 c -0.125 0.188 -0.254 0.367 -0.391 0.539 c 0.672 0.82 1.156 1.813 1.395 2.902 l 1.016 0.59 m -2.02 -4.03" fill="#ffc945"/><path d="m 20.332 21 c 1.879 0 3.488 1.063 4.34 2.594 c 0.484 -0.359 1.098 -0.594 1.773 -0.594 c 1.531 0 2.777 1.121 2.777 2.5 c 0 0.309 -0.059 0.602 -0.176 0.875 c 1.746 0.699 2.953 2.289 2.953 4.125 c 0 2.492 -2.23 4.5 -5 4.5 l -10 0 c -2.77 0 -5 -2.01 -5 -4.5 c 0 -1.977 1.41 -3.641 3.367 -4.25 c 0 -0.086 -0.035 -0.164 -0.035 -0.25 c 0 -2.762 2.242 -5 5 -5 m 0 0" fill="#f9f9f9" fill-rule="evenodd"/></g></g></g></g><g><g transform="translate(0,-1004.3622)"><path d="m 1 1043.36 0 4 c 0 2.216 1.784 4 4 4 l 38 0 c 2.216 0 4 -1.784 4 -4 l 0 -4 c 0 2.216 -1.784 4 -4 4 l -38 0 c -2.216 0 -4 -1.784 -4 -4 z" opacity="0.1"/></g></g></svg>
